X:33
T:Autumn - L'Autunno (RV 293) - Allegro
C:Vivaldi, A.
M:4/4
L:1/8
Q:1/4=132
K:F
|:A2|f4 ef ga|b2 ag f2 d2|e4 de fg|a2 gf e2 c2|
d4 cd ef|g2 fe d2 B2|c4 Bc de|f4 f2:|

